assets/images/icons/documentation/icn-doc-reference.svg

<svg xmlns="http://www.w3.org/2000/svg" xmlns:xlink="http://www.w3.org/1999/xlink" preserveAspectRatio="xMidYMid" width="32" height="32" viewBox="0 0 32 32">
  <defs>
    <style>

      .cls-2 {
        fill: #9daab3;
      }
    </style>
  </defs>
  <path d="M30.000,32.000 C30.000,32.000 8.000,32.000 8.000,32.000 C8.000,32.000 8.000,32.000 8.000,32.000 C8.000,32.000 2.000,32.000 2.000,32.000 C0.895,32.000 0.000,31.105 0.000,30.000 C0.000,30.000 0.000,2.000 0.000,2.000 C0.000,0.896 0.895,0.000 2.000,0.000 C2.000,0.000 8.000,0.000 8.000,0.000 C8.000,0.000 8.000,0.000 8.000,0.000 C8.000,0.000 27.000,0.000 27.000,0.000 C27.000,0.000 32.000,5.000 32.000,5.000 C32.000,5.000 32.000,30.000 32.000,30.000 C32.000,31.105 31.105,32.000 30.000,32.000 ZM2.000,2.000 C2.000,2.000 2.000,30.000 2.000,30.000 C2.000,30.000 6.000,30.000 6.000,30.000 C6.000,30.000 6.000,2.000 6.000,2.000 C6.000,2.000 2.000,2.000 2.000,2.000 ZM27.000,3.000 C27.000,3.000 27.000,5.000 27.000,5.000 C27.000,5.000 29.000,5.000 29.000,5.000 C29.000,5.000 27.000,3.000 27.000,3.000 ZM30.000,7.000 C30.000,7.000 26.000,7.000 26.000,7.000 C26.000,7.000 25.000,6.000 25.000,6.000 C25.000,6.000 25.000,2.000 25.000,2.000 C25.000,2.000 8.000,2.000 8.000,2.000 C8.000,2.000 8.000,2.000 8.000,2.000 C8.000,2.000 8.000,30.000 8.000,30.000 C8.000,30.000 8.000,30.000 8.000,30.000 C8.000,30.000 30.000,30.000 30.000,30.000 C30.000,30.000 30.000,7.000 30.000,7.000 ZM13.000,8.000 C13.000,8.000 18.000,8.000 18.000,8.000 C18.552,8.000 19.000,8.448 19.000,9.000 C19.000,9.552 18.552,10.000 18.000,10.000 C18.000,10.000 13.000,10.000 13.000,10.000 C12.448,10.000 12.000,9.552 12.000,9.000 C12.000,8.448 12.448,8.000 13.000,8.000 ZM13.000,12.000 C13.000,12.000 25.000,12.000 25.000,12.000 C25.552,12.000 26.000,12.448 26.000,13.000 C26.000,13.552 25.552,14.000 25.000,14.000 C25.000,14.000 13.000,14.000 13.000,14.000 C12.448,14.000 12.000,13.552 12.000,13.000 C12.000,12.448 12.448,12.000 13.000,12.000 ZM13.000,16.000 C13.000,16.000 25.000,16.000 25.000,16.000 C25.552,16.000 26.000,16.448 26.000,17.000 C26.000,17.552 25.552,18.000 25.000,18.000 C25.000,18.000 13.000,18.000 13.000,18.000 C12.448,18.000 12.000,17.552 12.000,17.000 C12.000,16.448 12.448,16.000 13.000,16.000 ZM13.000,20.000 C13.000,20.000 25.000,20.000 25.000,20.000 C25.552,20.000 26.000,20.448 26.000,21.000 C26.000,21.552 25.552,22.000 25.000,22.000 C25.000,22.000 13.000,22.000 13.000,22.000 C12.448,22.000 12.000,21.552 12.000,21.000 C12.000,20.448 12.448,20.000 13.000,20.000 ZM13.000,24.000 C13.000,24.000 21.000,24.000 21.000,24.000 C21.552,24.000 22.000,24.448 22.000,25.000 C22.000,25.552 21.552,26.000 21.000,26.000 C21.000,26.000 13.000,26.000 13.000,26.000 C12.448,26.000 12.000,25.552 12.000,25.000 C12.000,24.448 12.448,24.000 13.000,24.000 Z" id="path-1" class="cls-2" fill-rule="evenodd"/>
</svg>

<svg xmlns="http://www.w3.org/2000/svg" preserveAspectRatio="xMidYMid" width="32" height="32" viewBox="0 0 32 32"><defs><style>.cls-2{fill:#9daab3}</style></defs><path d="M30 32H2a2 2 0 0 1-2-2V2a2 2 0 0 1 2-2h25l5 5v25a2 2 0 0 1-2 2zM2 2v28h4V2H2zm25 1v2h2l-2-2zm3 4h-4l-1-1V2H8v28h22V7zM13 8h5a1 1 0 0 1 0 2h-5a1 1 0 0 1 0-2zm0 4h12a1 1 0 0 1 0 2H13a1 1 0 0 1 0-2zm0 4h12a1 1 0 0 1 0 2H13a1 1 0 0 1 0-2zm0 4h12a1 1 0 0 1 0 2H13a1 1 0 0 1 0-2zm0 4h8a1 1 0 0 1 0 2h-8a1 1 0 0 1 0-2z" id="path-1" class="cls-2" fill-rule="evenodd"/></svg>
